src/icons/plus.svg

<?xml version="1.0" encoding="UTF-8"?>
<svg xmlns="http://www.w3.org/2000/svg" xmlns:xlink="http://www.w3.org/1999/xlink" width="32" height="32" viewBox="0 0 32 32" version="1.1">
<g id="surface1">
<path style=" stroke:none;fill-rule:nonzero;fill:rgb(0%,0%,0%);fill-opacity:1;" d="M 16 8 C 16.882812 8 17.601562 8.714844 17.601562 9.601562 L 17.601562 14.398438 L 22.398438 14.398438 C 23.285156 14.398438 24 15.117188 24 16 C 24 16.882812 23.285156 17.601562 22.398438 17.601562 L 17.601562 17.601562 L 17.601562 22.398438 C 17.601562 23.285156 16.882812 24 16 24 C 15.117188 24 14.398438 23.285156 14.398438 22.398438 L 14.398438 17.601562 L 9.601562 17.601562 C 8.714844 17.601562 8 16.882812 8 16 C 8 15.117188 8.714844 14.398438 9.601562 14.398438 L 14.398438 14.398438 L 14.398438 9.601562 C 14.398438 8.714844 15.117188 8 16 8 Z M 16 8 "/>
</g>
</svg>

<svg role="img" viewBox="0 0 32 32" xmlns="http://www.w3.org/2000/svg"><path d="M16 8c.883 0 1.602.715 1.602 1.602v4.796h4.796a1.601 1.601 0 1 1 0 3.204h-4.796v4.796a1.601 1.601 0 1 1-3.204 0v-4.796H9.602a1.601 1.601 0 1 1 0-3.204h4.796V9.602C14.398 8.715 15.118 8 16 8m0 0" style="stroke:none;fill-rule:nonzero;fill:rgb(0%,0%,0%);fill-opacity:1"/></svg>
